!!!SOCIAL_FUNCTION:	miscellaneous songs
!!!PDT:	1943
!!!OTL: No_86_Song_Concerning_the_Prophet_Skilmaha.krn
!!!REG: British Columbia
**kern
*staff1
=1-
*clefF4
*k[f#c#g#d#]
*M2/4
8B\L
8B\J
8.c#\L
16c#\Jk
=2
8.B\L
16B\Jk
4B\
=3
8c#\L
16B\L
16B\JJ
8.G#\L
32F#\Jkk
32r
=4||
*M3/8
8.B\L
16B\L
16B\JJ
16r
=5||
*M2/4
16c#\LK
8c#\
16B\Jk
8B\L
16G#\L
16G#\JJ
=6
8B\L
16G#\L
16G#\JJ
8G#\
8r
=7
8B\L
8F#\J
8.F#\L
32E\Jkk
32r
=8
8.B\L
16B\Jk
4G#\
=9
8G#\L
16G#\L
16G#\JJ
8G#\L
8E\J
=10
8G#\L
16F#\L
16F#\JJ
4F#\
=11
8F#\L
8E\J
8E\L
8E\J
=12
8.F#\L
16F#\Jk
4F#\
=13
8F#\L
8E\J
8E\
8r
=14
8.E\L
16F#\Jk
8F#\
8r
==
*-
